Adwaita++-Dark/actions/16/format-insert-node.svg

<svg fill="none" height="16" viewBox="0 0 16 16" width="16" xmlns="http://www.w3.org/2000/svg" xmlns:xlink="http://www.w3.org/1999/xlink">
  <clipPath id="clip0">
    <path d="m0 0h16v16h-16z"/>
  </clipPath>
  <g clip-path="url(#clip0)" fill="#e6ddff">
    <path d="m12 10v1.9968h-2v1.9967h2v1.9967h2v-1.9967h2v-1.9967h-2v-1.9968z"/>
    <path d="m0 3h16v2h-16z"/>
    <path d="m5 1h6v6h-6z"/>
  </g>
</svg>

<svg xmlns="http://www.w3.org/2000/svg" fill="none" width="16" height="16" viewBox="0 0 16 16">
 <g clip-path="url(#clip0)">
  <path fill="#E6DDFF" d="M12 10V11.9968H10V13.9935H12V15.9902H14V13.9935H16V11.9968H14V10H12Z"/>
  <rect fill="#E6DDFF" width="16" height="2" y="3"/>
  <rect fill="#E6DDFF" width="6" height="6" x="5" y="1"/>
 </g>
 <defs>
  <clipPath id="clip0">
   <rect fill="#fff" width="16" height="16"/>
  </clipPath>
 </defs>
</svg>
